common/src/main/resources/icons/plugins/resharper/LocalHistory/DiffVS.svg

<!--
  - The MIT License (MIT)
  -
  - Copyright (c) 2015-2024 Elior "Mallowigi" Boukhobza
  -
  - Permission is hereby granted, free of charge, to any person obtaining a copy
  - of this software and associated documentation files (the "Software"), to deal
  - in the Software without restriction, including without limitation the rights
  - to use, copy, modify, merge, publish, distribute, sublicense, and/or sell
  - copies of the Software, and to permit persons to whom the Software is
  - furnished to do so, subject to the following conditions:
  -
  - The above copyright notice and this permission notice shall be included in all
  - copies or substantial portions of the Software.
  -
  - THE SOFTWARE IS PROVIDED "AS IS", WITHOUT WARRANTY OF ANY KIND, EXPRESS OR
  - IMPLIED, INCLUDING BUT NOT LIMITED TO THE WARRANTIES OF MERCHANTABILITY,
  - FITNESS FOR A PARTICULAR PURPOSE AND NONINFRINGEMENT. IN NO EVENT SHALL THE
  - AUTHORS OR COPYRIGHT HOLDERS BE LIABLE FOR ANY CLAIM, DAMAGES OR OTHER
  - LIABILITY, WHETHER IN AN ACTION OF CONTRACT, TORT OR OTHERWISE, ARISING FROM,
  - OUT OF OR IN CONNECTION WITH THE SOFTWARE OR THE USE OR OTHER DEALINGS IN THE
  - SOFTWARE.
  -->


<svg data-big="true" xmlns="http://www.w3.org/2000/svg" version="1.1" width="16px" height="16px" viewBox="0 0 24 24">
  <path fill="#90A4AE"
        d="M19,3H14V5H19V18L14,12V21H19A2,2 0 0,0 21,19V5C21,3.89 20.1,3 19,3M10,18H5L10,12M10,3H5C3.89,3 3,3.89 3,5V19A2,2 0 0,0 5,21H10V23H12V1H10V3Z"/>
  <path fill="#CE93D8" transform="scale(0.02) translate(640 640)"
        d="M181.3904114,200.8379517L51.3018875,101.9018707L0,127.5528183v256.5320435l51.3018761,25.6509094l129.3895874-99.6637268L386.643158,512l124.6097412-50.2151794V49.8529205L385.9187317,0L181.3904114,200.8379517z M384.5906677,358.4338989L253.9510803,254.7207947L384.2283936,153.565979L384.5906677,358.4338989z M130.0885162,255.8301392l-77.8660965,73.3078003V182.5449677L130.0885162,255.8301392z"/>
</svg>

<svg xmlns="http://www.w3.org/2000/svg" width="16" height="16" data-big="true" viewBox="0 0 24 24"><path fill="#90A4AE" d="M19 3h-5v2h5v13l-5-6v9h5a2 2 0 0 0 2-2V5a2 2 0 0 0-2-2m-9 15H5l5-6m0-9H5c-1.11 0-2 .89-2 2v14a2 2 0 0 0 2 2h5v2h2V1h-2z"/><path fill="#CE93D8" d="m16.428 16.817-2.602-1.979-1.026.513v5.13l1.026.514L16.414 19l4.119 4.039 2.492-1.004v-8.239l-2.507-.997zm4.064 3.152-2.613-2.075 2.606-2.023zm-5.09-2.052-1.558 1.466V16.45z"/></svg>
